X: 36224
T: Scully Casey's
R: jig
M: 6/8
K: Gmajor
|:B|cBc A2 G|EcB cde|dcA A2 B|cde ged|
cBc A2 G|EcB cde|dcA AGE|EDD D2:|
|:g|efg ged|cAB cde|eaa age|ed^c d3|
efg ged|cAB cde|dcA AGE|EDD D2:|

